; generated by PrusaSlicer 2.9.6 on 2026-07-16 at 00:55:31 UTC

; 

; external perimeters extrusion width = 0.42mm
; perimeters extrusion width = 0.44mm
; infill extrusion width = 0.44mm
; solid infill extrusion width = 0.44mm
; top infill extrusion width = 0.40mm
; support material extrusion width = 0.36mm
; first layer extrusion width = 0.42mm

M201 X500 Y500 Z100 E5000 ; sets maximum accelerations, mm/sec^2
M203 X500 Y500 Z10 E60 ; sets maximum feedrates, mm / sec
M204 S500 T1000 ; sets acceleration (S) and retract acceleration (R), mm/sec^2
M205 X8.00 Y8.00 Z0.40 E5.00 ; sets the jerk limits, mm/sec
M205 S0 T0 ; sets the minimum extruding and travel feed rate, mm/sec

; printing object 2mm-spacer.stl id:0 copy 0
; stop printing object 2mm-spacer.stl id:0 copy 0

;TYPE:Custom
G90 ; use absolute coordinates
M83 ; extruder relative mode
M104 S160 ; set temporary nozzle temp to prevent oozing during homing
M140 S70 ; set final bed temp
G4 S30 ; allow partial nozzle warmup
G28 ; home all axis
G1 Z50 F240
G1 X2.0 Y10 F3000
M104 S240 ; set final nozzle temp
M190 S70 ; wait for bed temp to stabilize
M109 S240 ; wait for nozzle temp to stabilize
G1 Z0.28 F240
G92 E0
G1 X2.0 Y140 E10 F1500 ; prime the nozzle
G1 X2.3 Y140 F5000
G92 E0
G1 X2.3 Y10 E10 F1200 ; prime the nozzle
G92 E0
G21 ; set units to millimeters
G90 ; use absolute coordinates
M83 ; use relative distances for extrusion
; Filament gcode
M107
;LAYER_CHANGE
;Z:0.2
;HEIGHT:0.2
G1 E-5 F3600
G1 Z.2 F9000
G1 X105.017 Y104.647
G1 E5 F2400
M204 S500
;TYPE:Skirt/Brim
;WIDTH:0.42
G1 F900
G1 X106.022 Y103.863 E.03997
G1 X107.148 Y103.266 E.03996
G1 X108.361 Y102.873 E.03998
G1 X109.103 Y102.742 E.02362
G1 X110.376 Y102.697 E.03994
G1 X111.639 Y102.873 E.03998
G1 X112.852 Y103.266 E.03998
G1 X113.978 Y103.863 E.03996
G1 X115.353 Y105.017 E.05628
G1 X116.137 Y106.022 E.03997
G1 X116.513 Y106.674 E.0236
G1 X116.992 Y107.856 E.03999
G1 X117.258 Y109.103 E.03998
G1 X117.303 Y110.376 E.03994
G1 X117.127 Y111.639 E.03998
G1 X116.734 Y112.852 E.03998
G1 X116.137 Y113.978 E.03996
G1 X114.983 Y115.353 E.05628
G1 X113.978 Y116.137 E.03997
G1 X112.852 Y116.734 E.03996
G1 X111.639 Y117.127 E.03998
G1 X110.403 Y117.301 E.03914
G1 X109.624 Y117.303 E.02443
G1 X108.361 Y117.127 E.03998
G1 X107.148 Y116.734 E.03998
G1 X106.001 Y116.122 E.04076
G1 X104.647 Y114.983 E.05548
G1 X103.863 Y113.978 E.03997
G1 X103.266 Y112.852 E.03996
G1 X102.873 Y111.639 E.03998
G1 X102.742 Y110.897 E.02362
G1 X102.697 Y109.624 E.03994
G1 X102.873 Y108.361 E.03998
G1 X103.266 Y107.148 E.03998
G1 X104.163 Y105.594 E.05626
G1 X104.977 Y104.692 E.0381
G1 X105.256 Y104.945 F9000
G1 F900
G1 X105.284 Y104.914 E.00131
G1 X106.239 Y104.172 E.03792
G1 X107.308 Y103.608 E.0379
G1 X108.459 Y103.237 E.03792
G1 X109.135 Y103.118 E.02152
G1 X110.344 Y103.072 E.03793
G1 X111.541 Y103.237 E.03789
G1 X112.692 Y103.608 E.03792
G1 X114.19 Y104.472 E.05422
G1 X115.086 Y105.284 E.03791
G1 X115.828 Y106.239 E.03792
G1 X116.171 Y106.834 E.02153
G1 X116.627 Y107.953 E.03789
G1 X116.882 Y109.135 E.03791
G1 X116.928 Y110.344 E.03793
G1 X116.763 Y111.541 E.03789
G1 X116.392 Y112.692 E.03792
G1 X115.828 Y113.761 E.0379
G1 X114.716 Y115.086 E.05424
G1 X113.761 Y115.828 E.03792
G1 X112.692 Y116.392 E.0379
G1 X111.541 Y116.763 E.03792
G1 X110.865 Y116.882 E.02152
G1 X109.656 Y116.928 E.03793
G1 X108.459 Y116.763 E.03789
G1 X107.308 Y116.392 E.03792
G1 X106.239 Y115.828 E.0379
G1 X104.914 Y114.716 E.05424
G1 X104.172 Y113.761 E.03792
G1 X103.608 Y112.692 E.0379
G1 X103.237 Y111.541 E.03792
G1 X103.118 Y110.865 E.02152
G1 X103.072 Y109.656 E.03793
G1 X103.237 Y108.459 E.03789
G1 X103.608 Y107.308 E.03792
G1 X104.472 Y105.81 E.05422
G1 X105.216 Y104.989 E.03474
G1 X105.494 Y105.242 F9000
G1 F900
G1 X105.55 Y105.181 E.0026
G1 X106.455 Y104.481 E.03587
G1 X107.467 Y103.949 E.03585
G1 X108.556 Y103.601 E.03585
G1 X109.168 Y103.494 E.01948
G1 X110.311 Y103.448 E.03587
G1 X111.444 Y103.601 E.03585
G1 X112.533 Y103.949 E.03585
G1 X113.545 Y104.481 E.03585
G1 X114.819 Y105.55 E.05214
G1 X115.519 Y106.455 E.03587
G1 X115.83 Y106.993 E.01948
G1 X116.263 Y108.051 E.03584
G1 X116.506 Y109.168 E.03584
G1 X116.552 Y110.311 E.03587
G1 X116.399 Y111.444 E.03585
G1 X116.051 Y112.533 E.03585
G1 X115.519 Y113.545 E.03585
G1 X114.45 Y114.819 E.05214
G1 X113.545 Y115.519 E.03587
G1 X112.533 Y116.051 E.03585
G1 X111.444 Y116.399 E.03585
G1 X110.337 Y116.55 E.03503
G1 X109.689 Y116.552 E.02032
G1 X108.556 Y116.399 E.03585
G1 X107.467 Y116.051 E.03585
G1 X106.455 Y115.519 E.03585
G1 X105.181 Y114.45 E.05214
G1 X104.481 Y113.545 E.03587
G1 X103.949 Y112.533 E.03585
G1 X103.601 Y111.444 E.03585
G1 X103.494 Y110.832 E.01948
G1 X103.448 Y109.689 E.03587
G1 X103.601 Y108.556 E.03585
G1 X103.949 Y107.467 E.03585
G1 X104.781 Y106.026 E.05217
G1 X105.454 Y105.287 E.03134
G1 X105.732 Y105.541 F9000
G1 F900
G1 X105.817 Y105.447 E.00397
G1 X106.671 Y104.79 E.03378
G1 X107.626 Y104.291 E.03378
G1 X108.654 Y103.966 E.0338
G1 X110.278 Y103.824 E.05111
G1 X111.346 Y103.966 E.03378
G1 X112.374 Y104.291 E.0338
G1 X113.329 Y104.79 E.03378
G1 X114.553 Y105.817 E.0501
G1 X115.21 Y106.671 E.03378
G1 X115.899 Y108.149 E.05113
G1 X116.131 Y109.201 E.03378
G1 X116.176 Y110.278 E.0338
G1 X116.034 Y111.346 E.03378
G1 X115.709 Y112.374 E.0338
G1 X115.21 Y113.329 E.03378
G1 X114.183 Y114.553 E.0501
G1 X113.329 Y115.21 E.03378
G1 X112.374 Y115.709 E.03378
G1 X111.346 Y116.034 E.0338
G1 X109.722 Y116.176 E.05111
G1 X108.654 Y116.034 E.03378
G1 X107.626 Y115.709 E.0338
G1 X106.65 Y115.195 E.03459
G1 X105.447 Y114.183 E.04929
G1 X104.79 Y113.329 E.03378
G1 X104.291 Y112.374 E.03378
G1 X103.966 Y111.346 E.0338
G1 X103.824 Y109.722 E.05111
G1 X103.966 Y108.654 E.03378
G1 X104.291 Y107.626 E.0338
G1 X105.09 Y106.243 E.05008
G1 X105.691 Y105.585 E.02794
G1 E-3.5 F3600
;WIPE_START
G1 F7200
G1 X105.732 Y105.541 E-.02857
G1 X105.817 Y105.447 E-.0602
G1 X106.671 Y104.79 E-.5118
G1 X107.626 Y104.291 E-.51182
G1 X108.404 Y104.045 E-.38761
;WIPE_END
; printing object 2mm-spacer.stl id:0 copy 0
G1 X108.572 Y108.736 F9000
G1 E5 F2400
;TYPE:External perimeter
;WIDTH:0.419999
G1 F900
G1 X108.586 Y108.717 E.00074
G1 X108.934 Y108.416 E.01443
G1 X109.344 Y108.207 E.01443
G1 X109.792 Y108.102 E.01443
G1 X110.29 Y108.116 E.01562
G1 X110.698 Y108.223 E.01323
G1 X111.103 Y108.441 E.01442
G1 X111.444 Y108.751 E.01445
G1 X111.701 Y109.133 E.01444
G1 X111.872 Y109.664 E.01749
G1 X111.91 Y110.023 E.01132
G1 X111.849 Y110.479 E.01442
G1 X111.658 Y110.928 E.0153
G1 X111.414 Y111.283 E.01351
G1 X111.066 Y111.584 E.01443
G1 X110.656 Y111.793 E.01443
G1 X110.208 Y111.898 E.01443
G1 X109.693 Y111.88 E.01616
G1 X109.302 Y111.777 E.01268
G1 X108.897 Y111.559 E.01442
G1 X108.556 Y111.249 E.01445
G1 X108.299 Y110.867 E.01444
G1 X108.13 Y110.351 E.01702
G1 X108.09 Y110.023 E.01036
G1 X108.151 Y109.521 E.01586
G1 X108.333 Y109.074 E.01513
G1 X108.538 Y108.785 E.01111
G1 X108.288 Y108.484 F9000
;TYPE:Perimeter
;WIDTH:0.447382
G1 F900
G1 X108.33 Y108.428 E.00235
;WIDTH:0.438242
G1 X108.754 Y108.074 E.01816
;WIDTH:0.442376
G1 X109.251 Y107.83 E.01839
G1 X109.742 Y107.72 E.01671
;WIDTH:0.434506
G1 X110.258 Y107.72 E.0168
;WIDTH:0.44268
G1 X110.788 Y107.84 E.01806
G1 X111.246 Y108.074 E.0171
;WIDTH:0.43824
G1 X111.67 Y108.428 E.01816
;WIDTH:0.44738
G1 X111.989 Y108.852 E.01784
;WIDTH:0.454482
G1 X112.154 Y109.214 E.01361
G1 X112.261 Y109.617 E.01427
;WIDTH:0.450992
G1 X112.294 Y110.069 E.01538
;WIDTH:0.44041
G1 X112.209 Y110.616 E.0183
;WIDTH:0.453942
G1 X111.986 Y111.147 E.01968
G1 X111.67 Y111.572 E.0181
;WIDTH:0.43824
G1 X111.246 Y111.926 E.01816
;WIDTH:0.442374
G1 X110.749 Y112.17 E.01839
G1 X110.208 Y112.284 E.01836
;WIDTH:0.44073
G1 X109.655 Y112.269 E.0183
G1 X109.122 Y112.12 E.01831
;WIDTH:0.438862
G1 X108.641 Y111.847 E.01821
;WIDTH:0.444748
G1 X108.235 Y111.47 E.01851
G1 X107.938 Y111.004 E.01846
;WIDTH:0.439592
G1 X107.756 Y110.482 E.01823
;WIDTH:0.440416
G1 X107.706 Y109.931 E.01829
G1 X107.791 Y109.384 E.0183
;WIDTH:0.447382
G1 X108.011 Y108.852 E.01936
G1 X108.252 Y108.531 E.0135
G1 X107.971 Y108.25 F9000
;TYPE:External perimeter
;WIDTH:0.419999
G1 F900
G1 X108.247 Y107.965 E.01244
G1 X108.533 Y107.757 E.01109
G1 X108.983 Y107.519 E.01596
G1 X109.5 Y107.361 E.01695
G1 X109.759 Y107.332 E.00817
G1 X110.291 Y107.337 E.01668
G1 X110.855 Y107.457 E.01808
G1 X111.313 Y107.657 E.01567
G1 X111.58 Y107.837 E.0101
G1 X111.968 Y108.179 E.01622
G1 X112.309 Y108.628 E.01768
G1 X112.526 Y109.08 E.01572
G1 X112.652 Y109.583 E.01626
G1 X112.681 Y109.916 E.01048
G1 X112.651 Y110.433 E.01624
G1 X112.581 Y110.715 E.00911
G1 X112.37 Y111.255 E.01818
G1 X112.09 Y111.686 E.01612
G1 X111.753 Y112.035 E.01521
G1 X111.467 Y112.243 E.01109
G1 X111.017 Y112.481 E.01596
G1 X110.5 Y112.639 E.01695
G1 X110.241 Y112.668 E.00817
G1 X109.715 Y112.663 E.01649
G1 X109.151 Y112.546 E.01806
G1 X108.687 Y112.343 E.01588
G1 X108.42 Y112.163 E.0101
G1 X108.032 Y111.821 E.01622
G1 X107.691 Y111.372 E.01768
G1 X107.488 Y110.951 E.01465
G1 X107.383 Y110.582 E.01203
G1 X107.319 Y110.084 E.01574
G1 X107.349 Y109.567 E.01624
G1 X107.419 Y109.285 E.00911
G1 X107.607 Y108.795 E.01646
G1 X107.916 Y108.306 E.01814
G1 X107.929 Y108.293 E.00058
;LAYER_CHANGE
;Z:0.28
;HEIGHT:0.08
;BEFORE_LAYER_CHANGE
G92 E0
;0.28


G1 E-3.5 F3600
;WIPE_START
G1 F7200
G1 X107.971 Y108.25 E-.02855
G1 X108.247 Y107.965 E-.18845
G1 X108.533 Y107.757 E-.16798
G1 X108.983 Y107.519 E-.2418
G1 X109.5 Y107.361 E-.25679
G1 X109.759 Y107.332 E-.12379
G1 X110.291 Y107.337 E-.25271
G1 X110.785 Y107.442 E-.23993
;WIPE_END
G1 Z.28 F9000
;AFTER_LAYER_CHANGE
;0.28
; stop printing object 2mm-spacer.stl id:0 copy 0
G1 X104.51 Y105.21
G1 E5 F2400
;TYPE:Skirt/Brim
;WIDTH:0.42
G1 F900
G1 X105.017 Y104.647 E.01015
G1 X106.022 Y103.863 E.01708
G1 X107.148 Y103.266 E.01708
G1 X108.361 Y102.873 E.01708
G1 X109.103 Y102.742 E.0101
G1 X110.376 Y102.697 E.01707
G1 X111.639 Y102.873 E.01709
G1 X112.852 Y103.266 E.01708
G1 X113.978 Y103.863 E.01708
G1 X115.353 Y105.017 E.02405
G1 X116.137 Y106.022 E.01708
G1 X116.513 Y106.674 E.01008
G1 X116.992 Y107.856 E.01709
G1 X117.258 Y109.103 E.01708
G1 X117.303 Y110.376 E.01707
G1 X117.127 Y111.639 E.01709
G1 X116.734 Y112.852 E.01708
G1 X116.137 Y113.978 E.01708
G1 X114.983 Y115.353 E.02405
G1 X113.978 Y116.137 E.01708
G1 X112.852 Y116.734 E.01708
G1 X111.639 Y117.127 E.01708
G1 X110.403 Y117.301 E.01672
G1 X109.624 Y117.303 E.01044
G1 X108.361 Y117.127 E.01709
G1 X107.148 Y116.734 E.01708
G1 X106.001 Y116.122 E.01742
G1 X104.647 Y114.983 E.02371
G1 X103.863 Y113.978 E.01708
G1 X103.266 Y112.852 E.01708
G1 X102.873 Y111.639 E.01708
G1 X102.742 Y110.897 E.0101
G1 X102.697 Y109.624 E.01707
G1 X102.873 Y108.361 E.01709
G1 X103.266 Y107.148 E.01708
G1 X104.163 Y105.594 E.02404
G1 X104.47 Y105.254 E.00614
G1 X104.748 Y105.506 F9000
G1 F900
G1 X105.284 Y104.914 E.0107
G1 X106.239 Y104.172 E.0162
G1 X107.308 Y103.608 E.01619
G1 X108.459 Y103.237 E.0162
G1 X109.135 Y103.118 E.0092
G1 X110.344 Y103.072 E.01621
G1 X111.541 Y103.237 E.01619
G1 X112.692 Y103.608 E.0162
G1 X114.19 Y104.472 E.02317
G1 X115.086 Y105.284 E.0162
G1 X115.828 Y106.239 E.0162
G1 X116.171 Y106.834 E.0092
G1 X116.627 Y107.953 E.01619
G1 X116.882 Y109.135 E.0162
G1 X116.928 Y110.344 E.01621
G1 X116.763 Y111.541 E.01619
G1 X116.392 Y112.692 E.0162
G1 X115.828 Y113.761 E.01619
G1 X114.716 Y115.086 E.02318
G1 X113.761 Y115.828 E.0162
G1 X112.692 Y116.392 E.01619
G1 X111.541 Y116.763 E.0162
G1 X110.865 Y116.882 E.0092
G1 X109.656 Y116.928 E.01621
G1 X108.459 Y116.763 E.01619
G1 X107.308 Y116.392 E.0162
G1 X106.239 Y115.828 E.01619
G1 X104.914 Y114.716 E.02318
G1 X104.172 Y113.761 E.0162
G1 X103.608 Y112.692 E.01619
G1 X103.237 Y111.541 E.0162
G1 X103.118 Y110.865 E.0092
G1 X103.072 Y109.656 E.01621
G1 X103.237 Y108.459 E.01619
G1 X103.608 Y107.308 E.0162
G1 X104.472 Y105.81 E.02317
G1 X104.708 Y105.55 E.0047
G1 X104.985 Y105.802 F9000
G1 F900
G1 X105.55 Y105.181 E.01125
G1 X106.455 Y104.481 E.01533
G1 X107.467 Y103.949 E.01532
G1 X108.556 Y103.601 E.01532
G1 X109.168 Y103.494 E.00832
G1 X110.311 Y103.448 E.01533
G1 X111.444 Y103.601 E.01532
G1 X112.533 Y103.949 E.01532
G1 X113.545 Y104.481 E.01532
G1 X114.819 Y105.55 E.02228
G1 X115.519 Y106.455 E.01533
G1 X115.83 Y106.993 E.00833
G1 X116.263 Y108.051 E.01532
G1 X116.506 Y109.168 E.01532
G1 X116.552 Y110.311 E.01533
G1 X116.399 Y111.444 E.01532
G1 X116.051 Y112.533 E.01532
G1 X115.519 Y113.545 E.01532
G1 X114.45 Y114.819 E.02228
G1 X113.545 Y115.519 E.01533
G1 X112.533 Y116.051 E.01532
G1 X111.444 Y116.399 E.01532
G1 X110.337 Y116.55 E.01497
G1 X109.689 Y116.552 E.00868
G1 X108.556 Y116.399 E.01532
G1 X107.467 Y116.051 E.01532
G1 X106.455 Y115.519 E.01532
G1 X105.181 Y114.45 E.02228
G1 X104.481 Y113.545 E.01533
G1 X103.949 Y112.533 E.01532
G1 X103.601 Y111.444 E.01532
G1 X103.494 Y110.832 E.00832
G1 X103.448 Y109.689 E.01533
G1 X103.601 Y108.556 E.01532
G1 X103.949 Y107.467 E.01532
G1 X104.781 Y106.026 E.02229
G1 X104.944 Y105.847 E.00324
G1 X105.221 Y106.1 F9000
G1 F900
G1 X105.817 Y105.447 E.01185
G1 X106.671 Y104.79 E.01444
G1 X107.626 Y104.291 E.01444
G1 X108.654 Y103.966 E.01445
G1 X110.278 Y103.824 E.02184
G1 X111.346 Y103.966 E.01444
G1 X112.374 Y104.291 E.01445
G1 X113.329 Y104.79 E.01444
G1 X114.553 Y105.817 E.02141
G1 X115.21 Y106.671 E.01444
G1 X115.899 Y108.149 E.02185
G1 X116.131 Y109.201 E.01443
G1 X116.176 Y110.278 E.01444
G1 X116.034 Y111.346 E.01444
G1 X115.709 Y112.374 E.01445
G1 X115.21 Y113.329 E.01444
G1 X114.183 Y114.553 E.02141
G1 X113.329 Y115.21 E.01444
G1 X112.374 Y115.709 E.01444
G1 X111.346 Y116.034 E.01445
G1 X109.722 Y116.176 E.02184
G1 X108.654 Y116.034 E.01444
G1 X107.626 Y115.709 E.01445
G1 X106.65 Y115.195 E.01478
G1 X105.447 Y114.183 E.02106
G1 X104.79 Y113.329 E.01444
G1 X104.291 Y112.374 E.01444
G1 X103.966 Y111.346 E.01445
G1 X103.824 Y109.722 E.02184
G1 X103.966 Y108.654 E.01444
G1 X104.291 Y107.626 E.01445
G1 X105.09 Y106.243 E.0214
G1 X105.18 Y106.144 E.00179
G1 E-3.5 F3600
;WIPE_START
G1 F7200
G1 X105.221 Y106.1 E-.02857
G1 X105.817 Y105.447 E-.41995
G1 X106.671 Y104.79 E-.5118
G1 X107.626 Y104.291 E-.51182
G1 X107.682 Y104.273 E-.02786
;WIPE_END
; printing object 2mm-spacer.stl id:0 copy 0
G1 X108.649 Y108.803 F9000
G1 E5 F2400
;TYPE:External perimeter
;WIDTH:0.419999
G1 F900
G1 X108.662 Y108.783 E.00032
G1 X109.082 Y108.451 E.00717
G1 X109.381 Y108.3 E.00449
G1 X109.806 Y108.202 E.00584
G1 X110.242 Y108.208 E.00584
G1 X110.664 Y108.318 E.00584
G1 X111.047 Y108.525 E.00583
G1 X111.373 Y108.823 E.00592
G1 X111.629 Y109.224 E.00637
G1 X111.77 Y109.661 E.00615
G1 X111.809 Y110.024 E.00489
G1 X111.75 Y110.456 E.00584
G1 X111.585 Y110.869 E.00596
G1 X111.338 Y111.217 E.00572
G1 X110.918 Y111.549 E.00717
G1 X110.619 Y111.7 E.00449
G1 X110.194 Y111.798 E.00584
G1 X109.719 Y111.783 E.00637
G1 X109.336 Y111.682 E.00531
G1 X108.953 Y111.475 E.00583
G1 X108.63 Y111.181 E.00585
G1 X108.387 Y110.819 E.00584
G1 X108.23 Y110.339 E.00677
G1 X108.191 Y109.976 E.00489
G1 X108.25 Y109.544 E.00584
G1 X108.391 Y109.186 E.00516
G1 X108.615 Y108.853 E.00538
G1 X108.29 Y108.485 F9000
;TYPE:Perimeter
;WIDTH:0.605346
G1 F900
G1 X108.34 Y108.419 E.00162
;WIDTH:0.588486
G1 X108.766 Y108.066 E.01051
;WIDTH:0.591148
G1 X109.264 Y107.826 E.01055
G1 X109.806 Y107.716 E.01056
;WIDTH:0.58949
G1 X110.359 Y107.734 E.01053
G1 X110.89 Y107.886 E.01051
;WIDTH:0.588
G1 X111.37 Y108.161 E.0105
;WIDTH:0.593656
G1 X111.783 Y108.556 E.01096
G1 X112.085 Y109.051 E.01112
;WIDTH:0.60001
G1 X112.26 Y109.602 E.01121
G1 X112.293 Y110.083 E.00935
;WIDTH:0.589368
G1 X112.205 Y110.629 E.01053
;WIDTH:0.595876
G1 X111.989 Y111.148 E.01082
G1 X111.66 Y111.582 E.01048
;WIDTH:0.588486
G1 X111.234 Y111.934 E.0105
;WIDTH:0.591146
G1 X110.736 Y112.174 E.01055
G1 X110.194 Y112.284 E.01056
;WIDTH:0.598152
G1 X109.601 Y112.261 E.01147
G1 X109.11 Y112.114 E.0099
;WIDTH:0.588002
G1 X108.63 Y111.839 E.0105
;WIDTH:0.591672
G1 X108.228 Y111.459 E.01057
G1 X107.933 Y110.991 E.01057
;WIDTH:0.590022
G1 X107.754 Y110.468 E.01053
G1 X107.707 Y109.917 E.01054
;WIDTH:0.58937
