; generated by PrusaSlicer 2.9.6 on 2026-07-16 at 00:51:30 UTC

; 

; external perimeters extrusion width = 0.42mm
; perimeters extrusion width = 0.44mm
; infill extrusion width = 0.44mm
; solid infill extrusion width = 0.44mm
; top infill extrusion width = 0.40mm
; support material extrusion width = 0.36mm
; first layer extrusion width = 0.42mm

M201 X500 Y500 Z100 E5000 ; sets maximum accelerations, mm/sec^2
M203 X500 Y500 Z10 E60 ; sets maximum feedrates, mm / sec
M204 S500 T1000 ; sets acceleration (S) and retract acceleration (R), mm/sec^2
M205 X8.00 Y8.00 Z0.40 E5.00 ; sets the jerk limits, mm/sec
M205 S0 T0 ; sets the minimum extruding and travel feed rate, mm/sec

; printing object backplate_left.stl id:0 copy 0
; stop printing object backplate_left.stl id:0 copy 0

;TYPE:Custom
G90 ; use absolute coordinates
M83 ; extruder relative mode
M104 S160 ; set temporary nozzle temp to prevent oozing during homing
M140 S70 ; set final bed temp
G4 S30 ; allow partial nozzle warmup
G28 ; home all axis
G1 Z50 F240
G1 X2.0 Y10 F3000
M104 S240 ; set final nozzle temp
M190 S70 ; wait for bed temp to stabilize
M109 S240 ; wait for nozzle temp to stabilize
G1 Z0.28 F240
G92 E0
G1 X2.0 Y140 E10 F1500 ; prime the nozzle
G1 X2.3 Y140 F5000
G92 E0
G1 X2.3 Y10 E10 F1200 ; prime the nozzle
G92 E0
G21 ; set units to millimeters
G90 ; use absolute coordinates
M83 ; use relative distances for extrusion
; Filament gcode
M107
;LAYER_CHANGE
;Z:0.2
;HEIGHT:0.2
G1 E-5 F3600
G1 Z.2 F9000
G1 X45.219 Y44.624
G1 E5 F2400
M204 S500
;TYPE:Skirt/Brim
;WIDTH:0.42
G1 F1200
G1 X46.389 Y43.887 E.04336
G1 X47.677 Y43.432 E.04283
G1 X49.165 Y43.271 E.04693
G1 X49.932 Y43.329 E.02412
G1 X171.909 Y61.283 E3.86571
G1 X173.471 Y61.672 E.05047
G1 X174.725 Y62.21 E.04278
G1 X175.882 Y62.925 E.04265
G1 X176.919 Y63.802 E.04258
G1 X178.079 Y65.19 E.05672
G1 X178.936 Y66.758 E.05603
G1 X179.478 Y68.483 E.05669
G1 X179.672 Y70.359 E.05913
G1 X179.664 Y164.732 E2.959
G1 X179.418 Y166.502 E.05603
G1 X178.942 Y167.948 E.04773
G1 X178.166 Y169.399 E.05159
G1 X177.035 Y170.801 E.05648
G1 X175.653 Y171.955 E.05645
G1 X174.072 Y172.818 E.05648
G1 X172.64 Y173.291 E.04729
G1 X170.856 Y173.54 E.05648
G1 X69.954 Y173.532 E3.16371
G1 X68.79 Y173.39 E.03677
G1 X67.808 Y173.15 E.0317
G1 X38.97 Y164.322 E.94561
G1 X37.884 Y163.849 E.03714
G1 X36.871 Y163.083 E.03982
G1 X36.22 Y162.316 E.03154
G1 X35.73 Y161.437 E.03155
G1 X35.416 Y160.47 E.03188
G1 X35.296 Y159.449 E.03223
G1 X35.295 Y61.859 E3.05987
G1 X35.72 Y60.268 E.05163
G1 X44.16 Y45.708 E.52767
G1 X45.177 Y44.667 E.04563
G1 E-3.5 F3600
;WIPE_START
G1 F7200
G1 X45.219 Y44.624 E-.02855
G1 X46.389 Y43.887 E-.65682
G1 X47.677 Y43.432 E-.64885
G1 X48.024 Y43.395 E-.16578
;WIPE_END
; printing object backplate_left.stl id:0 copy 0
G1 X69.892 Y161.767 F9000
G1 E5 F2400
;TYPE:Perimeter
;WIDTH:0.419999
G1 F1200
G1 X69.942 Y161.752 E.00164
G1 X70.44 Y161.696 E.01571
G1 X70.952 Y161.737 E.0161
G1 X71.439 Y161.873 E.01585
G1 X71.896 Y162.101 E.01601
G1 X72.301 Y162.413 E.01603
G1 X72.66 Y162.828 E.01721
G1 X72.92 Y163.29 E.01662
G1 X73.084 Y163.794 E.01662
G1 X73.144 Y164.321 E.01663
G1 X73.099 Y164.849 E.01662
G1 X72.951 Y165.357 E.01659
G1 X72.704 Y165.826 E.01662
G1 X72.369 Y166.237 E.01663
G1 X71.96 Y166.574 E.01662
G1 X71.492 Y166.822 E.01661
G1 X70.984 Y166.973 E.01662
G1 X70.456 Y167.021 E.01662
G1 X69.929 Y166.962 E.01663
G1 X69.424 Y166.801 E.01662
G1 X68.962 Y166.543 E.01659
G1 X68.694 Y166.329 E.01075
G1 X68.339 Y165.935 E.01663
G1 X68.069 Y165.479 E.01662
G1 X67.895 Y164.979 E.0166
G1 X67.822 Y164.467 E.01622
G1 X67.866 Y163.875 E.01861
G1 X68.008 Y163.379 E.01618
G1 X68.263 Y162.893 E.01721
G1 X68.598 Y162.482 E.01663
G1 X69.007 Y162.145 E.01662
G1 X69.453 Y161.904 E.01589
G1 X69.834 Y161.785 E.01252
G1 X69.976 Y162.137 F9000
G1 F1200
G1 X70.03 Y162.12 E.00178
G1 X70.483 Y162.074 E.01428
G1 X70.936 Y162.12 E.01428
G1 X71.37 Y162.254 E.01424
G1 X71.761 Y162.464 E.01392
G1 X72.046 Y162.692 E.01144
G1 X72.338 Y163.025 E.01389
G1 X72.566 Y163.419 E.01427
G1 X72.711 Y163.85 E.01426
G1 X72.768 Y164.302 E.01428
G1 X72.734 Y164.756 E.01427
G1 X72.611 Y165.194 E.01426
G1 X72.403 Y165.599 E.01428
G1 X72.12 Y165.955 E.01426
G1 X71.771 Y166.247 E.01427
G1 X71.372 Y166.465 E.01426
G1 X70.937 Y166.599 E.01427
G1 X70.411 Y166.639 E.01654
G1 X69.972 Y166.583 E.01388
G1 X69.552 Y166.442 E.01389
G1 X69.167 Y166.224 E.01387
G1 X68.929 Y166.034 E.00955
G1 X68.591 Y165.644 E.01618
G1 X68.357 Y165.195 E.01588
G1 X68.23 Y164.734 E.01499
G1 X68.199 Y164.405 E.01036
G1 X68.233 Y163.963 E.0139
G1 X68.356 Y163.525 E.01426
G1 X68.564 Y163.12 E.01428
G1 X68.847 Y162.764 E.01426
G1 X69.196 Y162.472 E.01427
G1 X69.595 Y162.254 E.01426
G1 X69.919 Y162.154 E.01063
G1 X69.968 Y162.529 F9000
;TYPE:External perimeter
G1 F1200
G1 X70.077 Y162.494 E.00359
G1 X70.455 Y162.45 E.01193
G1 X70.833 Y162.483 E.0119
G1 X71.198 Y162.589 E.01192
G1 X71.532 Y162.763 E.01181
G1 X71.769 Y162.948 E.00943
G1 X72.017 Y163.222 E.01159
G1 X72.212 Y163.548 E.01191
G1 X72.338 Y163.907 E.01193
G1 X72.391 Y164.283 E.01191
G1 X72.369 Y164.663 E.01193
G1 X72.271 Y165.03 E.01191
G1 X72.103 Y165.371 E.01192
G1 X71.87 Y165.672 E.01193
G1 X71.583 Y165.921 E.01191
G1 X71.252 Y166.107 E.0119
G1 X70.89 Y166.225 E.01194
G1 X70.439 Y166.263 E.01419
G1 X70.074 Y166.22 E.01152
G1 X69.724 Y166.107 E.01153
G1 X69.402 Y165.929 E.01154
G1 X69.164 Y165.739 E.00955
G1 X68.888 Y165.407 E.01354
G1 X68.716 Y165.081 E.01156
G1 X68.605 Y164.689 E.01277
G1 X68.575 Y164.425 E.00833
G1 X68.598 Y164.056 E.01159
G1 X68.696 Y163.689 E.01191
G1 X68.864 Y163.348 E.01192
G1 X69.097 Y163.047 E.01193
G1 X69.384 Y162.798 E.01191
G1 X69.715 Y162.612 E.0119
G1 X69.911 Y162.548 E.00646
G1 E-3.5 F3600
;WIPE_START
G1 F7200
G1 X69.968 Y162.529 E-.02854
G1 X70.077 Y162.494 E-.05438
G1 X70.455 Y162.45 E-.18076
G1 X70.833 Y162.483 E-.18023
G1 X71.198 Y162.589 E-.18054
G1 X71.532 Y162.763 E-.17889
G1 X71.769 Y162.948 E-.14281
G1 X72.017 Y163.222 E-.17554
G1 X72.212 Y163.548 E-.18044
G1 X72.338 Y163.907 E-.18072
G1 X72.343 Y163.943 E-.01715
;WIPE_END
G1 X45.202 Y74.914 F9000
G1 E5 F2400
;TYPE:Perimeter
G1 F1200
G1 X45.082 Y74.956 E.00399
G1 X44.555 Y75.023 E.01666
G1 X43.929 Y74.962 E.01972
G1 X43.424 Y74.801 E.01662
G1 X42.962 Y74.543 E.01659
G1 X42.559 Y74.198 E.01663
G1 X42.233 Y73.78 E.01662
G1 X41.996 Y73.306 E.01662
G1 X41.858 Y72.794 E.01663
G1 X41.824 Y72.266 E.01659
G1 X41.895 Y71.74 E.01664
G1 X42.06 Y71.258 E.01597
G1 X42.27 Y70.882 E.0135
G1 X42.598 Y70.482 E.01622
G1 X43.007 Y70.145 E.01662
G1 X43.475 Y69.897 E.01661
G1 X43.983 Y69.746 E.01662
G1 X44.511 Y69.698 E.01662
G1 X45.038 Y69.757 E.01663
G1 X45.542 Y69.918 E.01659
G1 X46.005 Y70.176 E.01662
G1 X46.408 Y70.521 E.01663
G1 X46.734 Y70.939 E.01662
G1 X46.971 Y71.413 E.01662
G1 X47.109 Y71.924 E.0166
G1 X47.143 Y72.453 E.01662
G1 X47.072 Y72.978 E.01661
G1 X46.909 Y73.458 E.01589
G1 X46.766 Y73.734 E.00975
G1 X46.455 Y74.151 E.01631
G1 X46.081 Y74.49 E.01583
G1 X45.613 Y74.772 E.01713
G1 X45.259 Y74.894 E.01174
G1 X45.099 Y74.549 F9000
G1 F1200
G1 X44.937 Y74.599 E.00532
G1 X44.484 Y74.645 E.01428
G1 X44.031 Y74.599 E.01428
G1 X43.596 Y74.465 E.01427
G1 X43.197 Y74.248 E.01424
G1 X42.848 Y73.955 E.01429
G1 X42.564 Y73.6 E.01425
G1 X42.357 Y73.195 E.01426
G1 X42.233 Y72.757 E.01427
G1 X42.199 Y72.303 E.01427
G1 X42.255 Y71.852 E.01425
G1 X42.395 Y71.431 E.01391
G1 X42.57 Y71.11 E.01146
G1 X42.847 Y70.764 E.0139
G1 X43.196 Y70.472 E.01427
G1 X43.595 Y70.254 E.01426
G1 X44.03 Y70.12 E.01427
G1 X44.483 Y70.074 E.01428
G1 X44.936 Y70.12 E.01428
G1 X45.37 Y70.254 E.01424
G1 X45.77 Y70.471 E.01427
G1 X46.119 Y70.763 E.01427
G1 X46.403 Y71.119 E.01428
G1 X46.61 Y71.524 E.01426
G1 X46.734 Y71.962 E.01427
G1 X46.768 Y72.416 E.01427
G1 X46.711 Y72.867 E.01425
G1 X46.573 Y73.286 E.01383
G1 X46.44 Y73.543 E.00907
G1 X46.135 Y73.941 E.01572
G1 X45.771 Y74.247 E.01491
G1 X45.372 Y74.465 E.01426
G1 X45.157 Y74.531 E.00705
G1 X45.089 Y74.16 F9000
;TYPE:External perimeter
G1 F1200
G1 X44.89 Y74.225 E.00656
G1 X44.512 Y74.269 E.01193
G1 X44.133 Y74.236 E.01193
G1 X43.768 Y74.13 E.01192
G1 X43.432 Y73.953 E.01191
G1 X43.137 Y73.713 E.01192
G1 X42.895 Y73.419 E.01194
G1 X42.717 Y73.084 E.01189
G1 X42.608 Y72.719 E.01194
G1 X42.574 Y72.341 E.0119
G1 X42.616 Y71.963 E.01192
G1 X42.73 Y71.604 E.01181
G1 X42.87 Y71.339 E.0094
G1 X43.097 Y71.047 E.0116
G1 X43.384 Y70.798 E.01191
G1 X43.715 Y70.612 E.0119
G1 X44.077 Y70.494 E.01194
G1 X44.455 Y70.45 E.01193
G1 X44.833 Y70.483 E.0119
G1 X45.198 Y70.589 E.01192
G1 X45.535 Y70.766 E.01194
G1 X45.83 Y71.006 E.01192
G1 X46.071 Y71.299 E.0119
G1 X46.25 Y71.635 E.01194
G1 X46.359 Y72 E.01194
G1 X46.393 Y72.378 E.0119
G1 X46.351 Y72.756 E.01192
G1 X46.238 Y73.114 E.01177
G1 X46.115 Y73.353 E.00843
G1 X45.87 Y73.672 E.01261
G1 X45.583 Y73.921 E.01191
G1 X45.252 Y74.107 E.0119
G1 X45.146 Y74.142 E.0035
G1 E-3.5 F3600
;WIPE_START
G1 F7200
G1 X45.089 Y74.16 E-.02839
G1 X44.89 Y74.225 E-.09944
G1 X44.512 Y74.269 E-.18076
G1 X44.133 Y74.236 E-.18071
G1 X43.768 Y74.13 E-.18054
G1 X43.432 Y73.953 E-.18039
G1 X43.137 Y73.713 E-.18064
G1 X42.895 Y73.419 E-.18087
G1 X42.717 Y73.084 E-.18019
G1 X42.652 Y72.866 E-.10807
;WIPE_END
G1 X167.832 Y70.492 F9000
G1 E5 F2400
;TYPE:Perimeter
G1 F1200
G1 X167.822 Y70.385 E.00337
G1 X167.868 Y69.87 E.01621
G1 X168.016 Y69.362 E.01659
G1 X168.263 Y68.893 E.01662
G1 X168.598 Y68.482 E.01663
G1 X169.007 Y68.145 E.01662
G1 X169.475 Y67.897 E.01661
G1 X169.983 Y67.746 E.01662
G1 X170.487 Y67.697 E.01588
G1 X171.011 Y67.75 E.01651
G1 X171.515 Y67.905 E.01653
G1 X171.979 Y68.156 E.01654
G1 X172.384 Y68.494 E.01654
G1 X172.714 Y68.905 E.01653
G1 X172.957 Y69.373 E.01653
G1 X173.103 Y69.88 E.01654
G1 X173.147 Y70.383 E.01583
G1 X173.072 Y70.978 E.0188
G1 X172.898 Y71.479 E.01663
G1 X172.643 Y71.917 E.01589
G1 X172.369 Y72.237 E.01321
G1 X171.96 Y72.574 E.01662
G1 X171.492 Y72.822 E.01661
G1 X170.984 Y72.973 E.01662
G1 X170.456 Y73.021 E.01662
G1 X169.929 Y72.962 E.01663
G1 X169.424 Y72.801 E.01662
G1 X168.962 Y72.543 E.01659
G1 X168.559 Y72.198 E.01663
G1 X168.233 Y71.78 E.01662
G1 X167.996 Y71.306 E.01662
G1 X167.86 Y70.814 E.016
G1 X167.837 Y70.552 E.00825
G1 X168.206 Y70.473 F9000
G1 F1200
G1 X168.199 Y70.405 E.00214
G1 X168.233 Y69.963 E.0139
G1 X168.356 Y69.525 E.01426
G1 X168.564 Y69.12 E.01428
G1 X168.847 Y68.764 E.01426
G1 X169.196 Y68.472 E.01427
G1 X169.595 Y68.254 E.01426
G1 X170.03 Y68.12 E.01427
G1 X170.483 Y68.074 E.01428
G1 X170.936 Y68.12 E.01428
G1 X171.37 Y68.254 E.01424
G1 X171.77 Y68.471 E.01427
G1 X172.119 Y68.763 E.01427
G1 X172.403 Y69.119 E.01428
G1 X172.602 Y69.5 E.01348
G1 X172.734 Y69.962 E.01507
G1 X172.768 Y70.416 E.01427
G1 X172.711 Y70.867 E.01425
G1 X172.567 Y71.299 E.01428
G1 X172.348 Y71.682 E.01383
G1 X172.12 Y71.955 E.01115
G1 X171.771 Y72.247 E.01427
G1 X171.372 Y72.465 E.01426
G1 X170.937 Y72.599 E.01427
G1 X170.484 Y72.645 E.01428
G1 X170.031 Y72.599 E.01428
G1 X169.596 Y72.465 E.01427
G1 X169.197 Y72.248 E.01424
G1 X168.848 Y71.955 E.01429
G1 X168.564 Y71.6 E.01425
G1 X168.357 Y71.195 E.01426
G1 X168.235 Y70.769 E.01389
G1 X168.211 Y70.533 E.00744
G1 X168.589 Y70.549 F9000
;TYPE:External perimeter
G1 F1200
G1 X168.575 Y70.425 E.00391
G1 X168.598 Y70.056 E.01159
G1 X168.696 Y69.689 E.01191
G1 X168.864 Y69.348 E.01192
G1 X169.097 Y69.047 E.01193
G1 X169.384 Y68.798 E.01191
G1 X169.715 Y68.612 E.0119
G1 X170.077 Y68.494 E.01194
G1 X170.455 Y68.45 E.01193
G1 X170.833 Y68.483 E.0119
G1 X171.198 Y68.589 E.01192
G1 X171.535 Y68.766 E.01194
G1 X171.83 Y69.006 E.01192
G1 X172.071 Y69.299 E.0119
G1 X172.247 Y69.627 E.01167
G1 X172.358 Y70 E.0122
G1 X172.393 Y70.378 E.0119
G1 X172.351 Y70.756 E.01192
G1 X172.235 Y71.118 E.01192
G1 X172.053 Y71.447 E.01179
G1 X171.87 Y71.672 E.00909
G1 X171.583 Y71.921 E.01191
G1 X171.252 Y72.107 E.0119
G1 X170.89 Y72.225 E.01194
G1 X170.512 Y72.269 E.01193
G1 X170.133 Y72.236 E.01193
G1 X169.768 Y72.13 E.01192
G1 X169.432 Y71.953 E.01191
G1 X169.137 Y71.713 E.01192
G1 X168.895 Y71.419 E.01194
G1 X168.717 Y71.084 E.01189
G1 X168.609 Y70.724 E.01178
G1 X168.596 Y70.609 E.00363
G1 E-3.5 F3600
;WIPE_START
G1 F7200
G1 X168.589 Y70.549 E-.02869
G1 X168.575 Y70.425 E-.05927
G1 X168.598 Y70.056 E-.17562
G1 X168.696 Y69.689 E-.18043
G1 X168.864 Y69.348 E-.18057
G1 X169.097 Y69.047 E-.18081
G1 X169.384 Y68.798 E-.18048
G1 X169.715 Y68.612 E-.18035
G1 X170.077 Y68.494 E-.18085
G1 X170.396 Y68.457 E-.15293
;WIPE_END
G1 X170.418 Y161.697 F9000
G1 E5 F2400
;TYPE:Perimeter
G1 F1200
G1 X171.038 Y161.757 E.01953
G1 X171.542 Y161.918 E.01659
G1 X172.005 Y162.176 E.01662
G1 X172.408 Y162.521 E.01663
G1 X172.734 Y162.939 E.01662
G1 X172.971 Y163.413 E.01662
G1 X173.109 Y163.924 E.0166
G1 X173.143 Y164.453 E.01662
G1 X173.072 Y164.978 E.01661
G1 X172.898 Y165.479 E.01663
G1 X172.628 Y165.935 E.01662
G1 X172.289 Y166.316 E.01599
G1 X171.949 Y166.581 E.01352
G1 X171.492 Y166.822 E.0162
G1 X171.005 Y166.97 E.01596
G1 X170.483 Y167.022 E.01645
G1 X169.929 Y166.962 E.01747
G1 X169.424 Y166.801 E.01662
G1 X168.962 Y166.543 E.01659
G1 X168.559 Y166.198 E.01663
G1 X168.233 Y165.78 E.01662
G1 X167.996 Y165.306 E.01662
G1 X167.86 Y164.814 E.016
G1 X167.822 Y164.385 E.0135
G1 X167.868 Y163.87 E.01621
G1 X168.016 Y163.362 E.01659
G1 X168.263 Y162.893 E.01662
G1 X168.557 Y162.52 E.01489
G1 X168.961 Y162.174 E.01668
G1 X169.41 Y161.921 E.01616
G1 X169.885 Y161.763 E.0157
G1 X170.358 Y161.703 E.01495
G1 X170.426 Y162.08 F9000
G1 F1200
G1 X170.483 Y162.074 E.0018
G1 X170.936 Y162.12 E.01428
G1 X171.37 Y162.254 E.01424
G1 X171.77 Y162.471 E.01427
G1 X172.119 Y162.763 E.01427
G1 X172.403 Y163.119 E.01428
G1 X172.61 Y163.524 E.01426
G1 X172.734 Y163.962 E.01427
G1 X172.768 Y164.416 E.01427
G1 X172.711 Y164.867 E.01425
G1 X172.567 Y165.299 E.01428
G1 X172.256 Y165.792 E.01828
G1 X171.923 Y166.13 E.01488
G1 X171.473 Y166.419 E.01677
G1 X170.964 Y166.595 E.01689
G1 X170.484 Y166.645 E.01513
G1 X170.031 Y166.599 E.01428
G1 X169.596 Y166.465 E.01427
G1 X169.197 Y166.248 E.01424
G1 X168.848 Y165.955 E.01429
G1 X168.564 Y165.6 E.01425
G1 X168.357 Y165.195 E.01426
G1 X168.235 Y164.769 E.01389
G1 X168.199 Y164.405 E.01147
G1 X168.233 Y163.963 E.0139
G1 X168.356 Y163.525 E.01426
G1 X168.564 Y163.12 E.01428
G1 X168.823 Y162.787 E.01323
G1 X169.196 Y162.472 E.01531
G1 X169.595 Y162.254 E.01426
G1 X170.03 Y162.12 E.01427
G1 X170.367 Y162.086 E.01062
G1 X170.341 Y162.463 F9000
;TYPE:External perimeter
G1 F1200
G1 X170.455 Y162.45 E.0036
G1 X170.833 Y162.483 E.0119
G1 X171.198 Y162.589 E.01192
G1 X171.535 Y162.766 E.01194
G1 X171.83 Y163.006 E.01192
G1 X172.071 Y163.299 E.0119
G1 X172.25 Y163.635 E.01194
G1 X172.358 Y164 E.01193
G1 X172.376 Y164.543 E.01703
G1 X172.306 Y164.903 E.0115
G1 X172.168 Y165.243 E.01151
G1 X171.967 Y165.55 E.01151
G1 X171.6 Y165.908 E.01608
G1 X171.252 Y166.107 E.01257
G1 X170.89 Y166.225 E.01194
G1 X170.512 Y166.269 E.01193
G1 X170.133 Y166.236 E.01193
G1 X169.768 Y166.13 E.01192
G1 X169.432 Y165.953 E.01191
G1 X169.137 Y165.713 E.01192
G1 X168.895 Y165.419 E.01194
G1 X168.717 Y165.084 E.01189
G1 X168.609 Y164.724 E.01178
G1 X168.575 Y164.425 E.00944
G1 X168.598 Y164.056 E.01159
G1 X168.696 Y163.689 E.01191
G1 X168.864 Y163.348 E.01192
G1 X169.088 Y163.055 E.01156
G1 X169.384 Y162.798 E.01229
G1 X169.715 Y162.612 E.0119
G1 X170.077 Y162.494 E.01194
G1 X170.282 Y162.47 E.00647
G1 E-3.5 F3600
;WIPE_START
G1 F7200
G1 X170.341 Y162.463 E-.02822
G1 X170.455 Y162.45 E-.0545
G1 X170.833 Y162.483 E-.18023
G1 X171.198 Y162.589 E-.18054
G1 X171.535 Y162.766 E-.18081
G1 X171.83 Y163.006 E-.18064
G1 X172.071 Y163.299 E-.18021
G1 X172.25 Y163.635 E-.18084
G1 X172.358 Y164 E-.18081
G1 X172.369 Y164.322 E-.1532
;WIPE_END
G1 X65.483 Y163.766 F9000
G1 E5 F2400
;TYPE:Perimeter
G1 F1200
G1 X65.432 Y163.502 E.00843
G1 X65.265 Y162.884 E.02007
G1 X64.971 Y162.3 E.0205
G1 X64.722 Y161.922 E.01419
G1 X64.289 Y161.424 E.02069
G1 X63.662 Y160.933 E.02497
G1 X63.122 Y160.644 E.0192
G1 X62.889 Y160.556 E.00781
G1 X62.011 Y160.332 E.02841
G1 X61.486 Y160.295 E.0165
