; generated by PrusaSlicer 2.9.6 on 2026-07-16 at 00:53:30 UTC

; 

; external perimeters extrusion width = 0.42mm
; perimeters extrusion width = 0.44mm
; infill extrusion width = 0.44mm
; solid infill extrusion width = 0.44mm
; top infill extrusion width = 0.40mm
; support material extrusion width = 0.36mm
; first layer extrusion width = 0.42mm

M201 X500 Y500 Z100 E5000 ; sets maximum accelerations, mm/sec^2
M203 X500 Y500 Z10 E60 ; sets maximum feedrates, mm / sec
M204 S500 T1000 ; sets acceleration (S) and retract acceleration (R), mm/sec^2
M205 X8.00 Y8.00 Z0.40 E5.00 ; sets the jerk limits, mm/sec
M205 S0 T0 ; sets the minimum extruding and travel feed rate, mm/sec

; printing object backplate_left.stl id:0 copy 0
; stop printing object backplate_left.stl id:0 copy 0

;TYPE:Custom
G90 ; use absolute coordinates
M83 ; extruder relative mode
M104 S160 ; set temporary nozzle temp to prevent oozing during homing
M140 S70 ; set final bed temp
G4 S30 ; allow partial nozzle warmup
G28 ; home all axis
G1 Z50 F240
G1 X2.0 Y10 F3000
M104 S240 ; set final nozzle temp
M190 S70 ; wait for bed temp to stabilize
M109 S240 ; wait for nozzle temp to stabilize
G1 Z0.28 F240
G92 E0
G1 X2.0 Y140 E10 F1500 ; prime the nozzle
G1 X2.3 Y140 F5000
G92 E0
G1 X2.3 Y10 E10 F1200 ; prime the nozzle
G92 E0
G21 ; set units to millimeters
G90 ; use absolute coordinates
M83 ; use relative distances for extrusion
; Filament gcode
M107
;LAYER_CHANGE
;Z:0.2
;HEIGHT:0.2
G1 E-5 F3600
G1 Z.2 F9000
G1 X39.073 Y62.933
G1 E5 F2400
M204 S500
;TYPE:Skirt/Brim
;WIDTH:0.42
G1 F1200
G1 X40.484 Y62.087 E.05158
G1 X41.742 Y61.59 E.04241
G1 X43.058 Y61.283 E.04237
G1 X165.035 Y43.329 E3.86571
G1 X166.081 Y43.274 E.03284
G1 X167.585 Y43.508 E.04772
G1 X168.849 Y44.027 E.04284
G1 X169.976 Y44.816 E.04314
G1 X170.895 Y45.827 E.04284
G1 X179.247 Y60.268 E.52306
G1 X179.672 Y61.859 E.05163
G1 X179.671 Y159.438 E3.05952
G1 X179.556 Y160.448 E.03187
G1 X179.246 Y161.417 E.0319
G1 X178.753 Y162.307 E.0319
G1 X178.096 Y163.083 E.03188
G1 X177.083 Y163.849 E.03982
G1 X175.997 Y164.322 E.03714
G1 X147.158 Y173.15 E.94564
G1 X146.199 Y173.386 E.03097
G1 X145.012 Y173.532 E.0375
G1 X44.111 Y173.54 E3.16368
G1 X42.614 Y173.355 E.04729
G1 X40.895 Y172.818 E.05647
G1 X39.314 Y171.955 E.05648
G1 X37.932 Y170.801 E.05645
G1 X36.888 Y169.529 E.0516
G1 X36.031 Y167.961 E.05603
G1 X35.552 Y166.516 E.04773
G1 X35.303 Y164.732 E.05648
G1 X35.295 Y70.359 E2.959
G1 X35.488 Y68.49 E.05891
G1 X36.025 Y66.771 E.05647
G1 X36.888 Y65.19 E.05648
G1 X38.042 Y63.808 E.05645
G1 X39.028 Y62.972 E.04053
G1 E-3.5 F3600
;WIPE_START
G1 F7200
G1 X39.073 Y62.933 E-.02829
G1 X40.484 Y62.087 E-.78146
G1 X41.742 Y61.59 E-.64249
G1 X41.84 Y61.567 E-.04776
;WIPE_END
; printing object backplate_left.stl id:0 copy 0
G1 X142.536 Y162.552 F9000
G1 E5 F2400
;TYPE:Perimeter
;WIDTH:0.419999
G1 F1200
G1 X142.579 Y162.499 E.00214
G1 X142.96 Y162.174 E.0157
G1 X143.395 Y161.927 E.01568
G1 X143.885 Y161.763 E.0162
G1 X144.392 Y161.697 E.01603
G1 X144.908 Y161.732 E.01622
G1 X145.401 Y161.86 E.01597
G1 X145.895 Y162.103 E.01726
G1 X146.314 Y162.427 E.01661
G1 X146.66 Y162.828 E.01661
G1 X146.918 Y163.284 E.01643
G1 X147.082 Y163.78 E.01638
G1 X147.145 Y164.309 E.0167
G1 X147.099 Y164.849 E.01699
G1 X146.951 Y165.357 E.01659
G1 X146.704 Y165.826 E.01662
G1 X146.369 Y166.237 E.01663
G1 X145.96 Y166.574 E.01662
G1 X145.492 Y166.822 E.01661
G1 X144.984 Y166.973 E.01662
G1 X144.591 Y167.021 E.01241
G1 X143.929 Y166.962 E.02084
G1 X143.424 Y166.801 E.01662
G1 X142.977 Y166.555 E.016
G1 X142.644 Y166.282 E.0135
G1 X142.307 Y165.891 E.01618
G1 X142.046 Y165.429 E.01664
G1 X141.883 Y164.925 E.01661
G1 X141.822 Y164.398 E.01663
G1 X141.868 Y163.87 E.01662
G1 X142.016 Y163.362 E.01659
G1 X142.263 Y162.893 E.01662
G1 X142.498 Y162.599 E.0118
G1 X142.812 Y162.809 F9000
G1 F1200
G1 X142.847 Y162.764 E.00179
G1 X143.196 Y162.472 E.01427
G1 X143.595 Y162.254 E.01426
G1 X144.03 Y162.12 E.01427
G1 X144.468 Y162.074 E.01381
G1 X144.983 Y162.136 E.01626
G1 X145.264 Y162.212 E.00913
G1 X145.745 Y162.46 E.01697
G1 X146.037 Y162.684 E.01154
G1 X146.338 Y163.025 E.01426
G1 X146.566 Y163.419 E.01427
G1 X146.711 Y163.85 E.01426
G1 X146.761 Y164.431 E.01828
G1 X146.695 Y164.907 E.01507
G1 X146.548 Y165.324 E.01386
G1 X146.323 Y165.705 E.01387
G1 X146.029 Y166.035 E.01386
G1 X145.677 Y166.302 E.01385
G1 X145.279 Y166.496 E.01388
G1 X144.852 Y166.61 E.01386
G1 X144.565 Y166.645 E.00907
G1 X144.031 Y166.599 E.01681
G1 X143.596 Y166.465 E.01427
G1 X143.206 Y166.255 E.01389
G1 X142.921 Y166.027 E.01144
G1 X142.628 Y165.694 E.01391
G1 X142.401 Y165.3 E.01426
G1 X142.256 Y164.869 E.01426
G1 X142.199 Y164.417 E.01428
G1 X142.233 Y163.963 E.01427
G1 X142.356 Y163.525 E.01426
G1 X142.564 Y163.12 E.01428
G1 X142.774 Y162.856 E.01058
G1 X143.027 Y163.137 F9000
;TYPE:External perimeter
G1 F1200
G1 X143.097 Y163.047 E.00357
G1 X143.384 Y162.798 E.01191
G1 X143.715 Y162.611 E.01192
G1 X144.077 Y162.494 E.01193
G1 X144.45 Y162.45 E.01178
G1 X144.899 Y162.504 E.01418
G1 X145.109 Y162.556 E.00678
G1 X145.525 Y162.766 E.01461
G1 X145.761 Y162.94 E.00919
G1 X146.017 Y163.222 E.01194
G1 X146.212 Y163.548 E.01191
G1 X146.338 Y163.907 E.01193
G1 X146.385 Y164.412 E.0159
G1 X146.33 Y164.814 E.01272
G1 X146.208 Y165.161 E.01153
G1 X146.022 Y165.477 E.0115
G1 X145.779 Y165.752 E.01151
G1 X145.488 Y165.975 E.0115
G1 X145.159 Y166.138 E.01151
G1 X144.805 Y166.236 E.01152
G1 X144.539 Y166.269 E.0084
G1 X144.133 Y166.236 E.01277
G1 X143.768 Y166.13 E.01192
G1 X143.435 Y165.956 E.01178
G1 X143.198 Y165.771 E.00943
G1 X142.95 Y165.497 E.01159
G1 X142.755 Y165.171 E.01191
G1 X142.629 Y164.812 E.01193
G1 X142.576 Y164.436 E.01191
G1 X142.598 Y164.056 E.01193
G1 X142.696 Y163.689 E.01191
G1 X142.864 Y163.348 E.01192
G1 X142.99 Y163.185 E.00646
G1 E-3.5 F3600
;WIPE_START
G1 F7200
G1 X143.027 Y163.137 E-.02879
G1 X143.097 Y163.047 E-.05416
G1 X143.384 Y162.798 E-.18048
G1 X143.715 Y162.611 E-.18058
G1 X144.077 Y162.494 E-.18071
G1 X144.45 Y162.45 E-.1784
G1 X144.899 Y162.504 E-.21481
G1 X145.109 Y162.556 E-.10276
G1 X145.525 Y162.766 E-.22135
G1 X145.761 Y162.94 E-.13927
G1 X145.787 Y162.969 E-.01869
;WIPE_END
G1 X169.766 Y74.91 F9000
G1 E5 F2400
;TYPE:Perimeter
G1 F1200
G1 X169.424 Y74.801 E.01125
G1 X168.962 Y74.543 E.01659
G1 X168.576 Y74.217 E.01584
G1 X168.259 Y73.825 E.01581
G1 X168.069 Y73.479 E.01238
G1 X167.895 Y72.978 E.01663
G1 X167.824 Y72.453 E.01661
G1 X167.858 Y71.924 E.01662
G1 X167.996 Y71.413 E.0166
G1 X168.231 Y70.938 E.01662
G1 X168.552 Y70.525 E.0164
G1 X169.007 Y70.145 E.01859
G1 X169.475 Y69.897 E.01661
G1 X169.983 Y69.746 E.01662
G1 X170.511 Y69.698 E.01662
G1 X171.038 Y69.757 E.01663
G1 X171.542 Y69.918 E.01659
G1 X172.005 Y70.176 E.01662
G1 X172.408 Y70.521 E.01663
G1 X172.734 Y70.939 E.01662
G1 X172.971 Y71.413 E.01662
G1 X173.109 Y71.924 E.0166
G1 X173.143 Y72.453 E.01662
G1 X173.072 Y72.978 E.01661
G1 X172.909 Y73.458 E.01589
G1 X172.704 Y73.827 E.01324
G1 X172.369 Y74.237 E.0166
G1 X171.96 Y74.574 E.01662
G1 X171.492 Y74.822 E.01661
G1 X170.984 Y74.973 E.01662
G1 X170.456 Y75.021 E.01662
G1 X169.929 Y74.962 E.01663
G1 X169.823 Y74.928 E.00349
G1 X169.867 Y74.549 F9000
G1 F1200
G1 X169.596 Y74.465 E.0089
G1 X169.197 Y74.248 E.01424
G1 X168.848 Y73.955 E.01429
G1 X168.564 Y73.6 E.01425
G1 X168.4 Y73.299 E.01075
G1 X168.24 Y72.804 E.01631
G1 X168.199 Y72.303 E.01576
G1 X168.255 Y71.852 E.01425
G1 X168.394 Y71.433 E.01384
G1 X168.564 Y71.12 E.01117
G1 X168.847 Y70.764 E.01426
G1 X169.196 Y70.472 E.01427
G1 X169.595 Y70.254 E.01426
G1 X170.03 Y70.12 E.01427
G1 X170.483 Y70.074 E.01428
G1 X170.936 Y70.12 E.01428
G1 X171.37 Y70.254 E.01424
G1 X171.77 Y70.471 E.01427
G1 X172.119 Y70.763 E.01427
G1 X172.403 Y71.119 E.01428
G1 X172.61 Y71.524 E.01426
G1 X172.734 Y71.962 E.01427
G1 X172.768 Y72.416 E.01427
G1 X172.711 Y72.867 E.01425
G1 X172.573 Y73.286 E.01383
G1 X172.403 Y73.599 E.01117
G1 X172.12 Y73.955 E.01426
G1 X171.771 Y74.247 E.01427
G1 X171.372 Y74.465 E.01426
G1 X170.937 Y74.599 E.01427
G1 X170.484 Y74.645 E.01428
G1 X170.031 Y74.599 E.01428
G1 X169.925 Y74.567 E.00347
G1 X170.06 Y74.215 F9000
;TYPE:External perimeter
G1 F1200
G1 X169.768 Y74.13 E.00954
G1 X169.432 Y73.953 E.01191
G1 X169.137 Y73.713 E.01192
G1 X168.895 Y73.419 E.01194
G1 X168.731 Y73.118 E.01075
G1 X168.608 Y72.719 E.01309
G1 X168.574 Y72.341 E.0119
G1 X168.616 Y71.963 E.01192
G1 X168.729 Y71.605 E.01177
G1 X168.864 Y71.348 E.0091
G1 X169.097 Y71.047 E.01193
G1 X169.384 Y70.798 E.01191
G1 X169.715 Y70.611 E.01192
G1 X170.244 Y70.473 E.01714
G1 X170.796 Y70.476 E.01731
G1 X171.198 Y70.589 E.01309
G1 X171.535 Y70.766 E.01194
G1 X171.83 Y71.006 E.01192
G1 X172.071 Y71.299 E.0119
G1 X172.25 Y71.635 E.01194
G1 X172.359 Y72 E.01194
G1 X172.393 Y72.378 E.0119
G1 X172.351 Y72.756 E.01192
G1 X172.238 Y73.114 E.01177
G1 X172.103 Y73.371 E.0091
G1 X171.87 Y73.672 E.01193
G1 X171.583 Y73.921 E.01191
G1 X171.252 Y74.107 E.0119
G1 X170.89 Y74.225 E.01194
G1 X170.512 Y74.269 E.01193
G1 X170.133 Y74.236 E.01193
G1 X170.118 Y74.232 E.00049
G1 E-3.5 F3600
;WIPE_START
G1 F7200
G1 X170.06 Y74.215 E-.02871
G1 X169.768 Y74.13 E-.14446
G1 X169.432 Y73.953 E-.18039
G1 X169.137 Y73.713 E-.18064
G1 X168.895 Y73.419 E-.18087
G1 X168.731 Y73.118 E-.16282
G1 X168.608 Y72.719 E-.19833
G1 X168.574 Y72.341 E-.18027
G1 X168.616 Y71.963 E-.18065
G1 X168.656 Y71.837 E-.06286
;WIPE_END
G1 X47.13 Y70.492 F9000
G1 E5 F2400
;TYPE:Perimeter
G1 F1200
G1 X47.099 Y70.849 E.01124
G1 X46.951 Y71.357 E.01659
G1 X46.704 Y71.826 E.01662
G1 X46.391 Y72.218 E.01573
G1 X46.006 Y72.545 E.01584
G1 X45.557 Y72.798 E.01616
G1 X45.082 Y72.956 E.0157
G1 X44.555 Y73.023 E.01666
G1 X43.929 Y72.962 E.01972
G1 X43.424 Y72.801 E.01662
G1 X42.962 Y72.543 E.01659
G1 X42.559 Y72.198 E.01663
G1 X42.233 Y71.78 E.01662
G1 X41.996 Y71.306 E.01662
G1 X41.858 Y70.794 E.01663
G1 X41.824 Y70.266 E.01659
G1 X41.882 Y69.789 E.01507
G1 X42.045 Y69.288 E.01652
G1 X42.304 Y68.828 E.01655
G1 X42.598 Y68.481 E.01426
G1 X42.994 Y68.153 E.01612
G1 X43.437 Y67.91 E.01584
G1 X43.938 Y67.752 E.01647
G1 X44.484 Y67.697 E.01721
G1 X44.908 Y67.732 E.01334
G1 X45.419 Y67.868 E.01658
G1 X45.895 Y68.103 E.01664
G1 X46.314 Y68.427 E.01661
G1 X46.66 Y68.828 E.01661
G1 X46.92 Y69.29 E.01662
G1 X47.084 Y69.794 E.01662
G1 X47.144 Y70.321 E.01663
G1 X47.135 Y70.432 E.00349
G1 X46.755 Y70.473 F9000
G1 F1200
G1 X46.734 Y70.756 E.0089
G1 X46.611 Y71.194 E.01426
G1 X46.403 Y71.599 E.01428
G1 X46.12 Y71.955 E.01426
G1 X45.771 Y72.247 E.01427
G1 X45.372 Y72.465 E.01426
G1 X44.937 Y72.599 E.01427
G1 X44.484 Y72.645 E.01428
G1 X44.031 Y72.599 E.01428
G1 X43.596 Y72.465 E.01427
G1 X43.197 Y72.248 E.01424
G1 X42.848 Y71.955 E.01429
G1 X42.564 Y71.6 E.01425
G1 X42.357 Y71.195 E.01426
G1 X42.233 Y70.757 E.01427
G1 X42.199 Y70.303 E.01427
G1 X42.247 Y69.881 E.01332
G1 X42.4 Y69.42 E.01523
G1 X42.619 Y69.037 E.01383
G1 X42.847 Y68.764 E.01115
G1 X43.196 Y68.472 E.01427
G1 X43.595 Y68.254 E.01426
G1 X44.03 Y68.12 E.01427
G1 X44.468 Y68.074 E.01381
G1 X44.824 Y68.1 E.01119
G1 X45.264 Y68.212 E.01424
G1 X45.674 Y68.409 E.01426
G1 X46.037 Y68.684 E.01428
G1 X46.338 Y69.025 E.01426
G1 X46.566 Y69.419 E.01427
G1 X46.711 Y69.85 E.01426
G1 X46.768 Y70.302 E.01428
G1 X46.76 Y70.413 E.00349
G1 X46.387 Y70.36 F9000
;TYPE:External perimeter
G1 F1200
G1 X46.369 Y70.663 E.00952
G1 X46.271 Y71.03 E.01191
G1 X46.103 Y71.371 E.01192
G1 X45.87 Y71.672 E.01193
G1 X45.583 Y71.921 E.01191
G1 X45.252 Y72.107 E.0119
G1 X44.89 Y72.225 E.01194
G1 X44.512 Y72.269 E.01193
G1 X44.133 Y72.236 E.01193
G1 X43.768 Y72.13 E.01192
G1 X43.432 Y71.953 E.01191
G1 X43.137 Y71.713 E.01192
G1 X42.895 Y71.419 E.01194
G1 X42.717 Y71.084 E.01189
G1 X42.608 Y70.719 E.01194
G1 X42.591 Y70.176 E.01703
G1 X42.613 Y69.973 E.0064
G1 X42.799 Y69.476 E.01664
G1 X43.082 Y69.062 E.01572
G1 X43.384 Y68.798 E.01258
G1 X43.715 Y68.611 E.01192
G1 X44.077 Y68.494 E.01193
G1 X44.45 Y68.45 E.01178
G1 X44.74 Y68.467 E.00911
G1 X45.109 Y68.556 E.0119
G1 X45.454 Y68.715 E.01191
G1 X45.761 Y68.94 E.01193
G1 X46.017 Y69.222 E.01194
G1 X46.212 Y69.548 E.01191
G1 X46.338 Y69.907 E.01193
G1 X46.391 Y70.283 E.01191
G1 X46.39 Y70.3 E.00053
G1 E-3.5 F3600
;WIPE_START
G1 F7200
G1 X46.387 Y70.36 E-.02854
G1 X46.369 Y70.663 E-.14418
G1 X46.271 Y71.03 E-.18043
G1 X46.103 Y71.371 E-.18057
G1 X45.87 Y71.672 E-.18081
G1 X45.583 Y71.921 E-.18048
G1 X45.252 Y72.107 E-.18035
G1 X44.89 Y72.225 E-.18085
G1 X44.512 Y72.269 E-.18076
G1 X44.38 Y72.258 E-.06303
;WIPE_END
G1 X44.55 Y161.703 F9000
G1 E5 F2400
;TYPE:Perimeter
G1 F1200
G1 X45.038 Y161.757 E.01539
G1 X45.542 Y161.918 E.01659
G1 X46.005 Y162.176 E.01662
G1 X46.408 Y162.521 E.01663
G1 X46.722 Y162.918 E.01587
G1 X46.92 Y163.29 E.01321
G1 X47.084 Y163.794 E.01662
G1 X47.144 Y164.321 E.01663
G1 X47.099 Y164.849 E.01662
G1 X46.951 Y165.357 E.01659
G1 X46.704 Y165.826 E.01662
G1 X46.369 Y166.237 E.01663
G1 X45.96 Y166.574 E.01662
G1 X45.492 Y166.822 E.01661
G1 X44.984 Y166.973 E.01662
G1 X44.644 Y167.016 E.01075
G1 X44.114 Y166.995 E.01663
G1 X43.599 Y166.87 E.01662
G1 X43.119 Y166.645 E.01662
G1 X42.694 Y166.329 E.01661
G1 X42.339 Y165.935 E.01663
G1 X42.069 Y165.479 E.01662
G1 X41.895 Y164.978 E.01663
G1 X41.824 Y164.453 E.01661
G1 X41.858 Y163.924 E.01662
G1 X41.996 Y163.413 E.0166
G1 X42.233 Y162.939 E.01662
G1 X42.598 Y162.481 E.01836
G1 X43.007 Y162.145 E.0166
G1 X43.475 Y161.897 E.01661
G1 X43.983 Y161.746 E.01662
G1 X44.49 Y161.7 E.01596
G1 X44.54 Y162.08 F9000
G1 F1200
G1 X44.936 Y162.12 E.01248
G1 X45.37 Y162.254 E.01424
G1 X45.77 Y162.471 E.01427
G1 X46.119 Y162.763 E.01427
G1 X46.396 Y163.107 E.01385
G1 X46.566 Y163.419 E.01114
G1 X46.711 Y163.85 E.01426
G1 X46.768 Y164.302 E.01428
G1 X46.734 Y164.756 E.01427
G1 X46.611 Y165.194 E.01426
G1 X46.403 Y165.599 E.01428
G1 X46.12 Y165.955 E.01426
G1 X45.771 Y166.247 E.01427
G1 X45.372 Y166.465 E.01426
G1 X44.937 Y166.599 E.01427
G1 X44.597 Y166.642 E.01075
G1 X44.064 Y166.608 E.01675
G1 X43.596 Y166.465 E.01534
G1 X43.197 Y166.248 E.01424
G1 X42.848 Y165.955 E.01429
G1 X42.564 Y165.6 E.01425
G1 X42.357 Y165.195 E.01426
G1 X42.233 Y164.757 E.01427
G1 X42.199 Y164.303 E.01427
G1 X42.255 Y163.852 E.01425
G1 X42.4 Y163.42 E.01429
G1 X42.619 Y163.037 E.01383
G1 X42.847 Y162.764 E.01115
G1 X43.196 Y162.472 E.01427
G1 X43.595 Y162.254 E.01426
G1 X44.03 Y162.12 E.01427
G1 X44.481 Y162.075 E.01421
G1 X44.436 Y162.453 F9000
;TYPE:External perimeter
G1 F1200
G1 X44.455 Y162.45 E.0006
G1 X44.833 Y162.483 E.0119
G1 X45.198 Y162.589 E.01192
G1 X45.535 Y162.766 E.01194
G1 X45.83 Y163.006 E.01192
G1 X46.069 Y163.295 E.01176
G1 X46.212 Y163.548 E.00911
G1 X46.338 Y163.907 E.01193
G1 X46.391 Y164.283 E.01191
G1 X46.369 Y164.663 E.01193
G1 X46.271 Y165.03 E.01191
G1 X46.103 Y165.371 E.01192
G1 X45.87 Y165.672 E.01193
G1 X45.583 Y165.921 E.01191
G1 X45.252 Y166.107 E.0119
G1 X44.89 Y166.225 E.01194
G1 X44.55 Y166.268 E.01075
G1 X44.133 Y166.236 E.01311
G1 X43.768 Y166.13 E.01192
G1 X43.432 Y165.953 E.01191
G1 X43.137 Y165.713 E.01192
G1 X42.895 Y165.419 E.01194
G1 X42.717 Y165.084 E.01189
G1 X42.608 Y164.719 E.01194
G1 X42.574 Y164.341 E.0119
G1 X42.616 Y163.963 E.01192
G1 X42.731 Y163.601 E.01191
G1 X42.913 Y163.272 E.01179
G1 X43.097 Y163.047 E.00911
G1 X43.384 Y162.798 E.01191
G1 X43.715 Y162.611 E.01192
G1 X44.077 Y162.494 E.01193
G1 X44.376 Y162.459 E.00944
G1 E-3.5 F3600
;WIPE_START
G1 F7200
G1 X44.436 Y162.453 E-.02864
G1 X44.455 Y162.45 E-.00914
G1 X44.833 Y162.483 E-.18023
G1 X45.198 Y162.589 E-.18054
G1 X45.535 Y162.766 E-.18081
G1 X45.83 Y163.006 E-.18064
G1 X46.069 Y163.295 E-.17814
G1 X46.212 Y163.548 E-.13804
G1 X46.338 Y163.907 E-.18072
G1 X46.391 Y164.283 E-.18037
G1 X46.383 Y164.415 E-.06273
;WIPE_END
G1 X149.484 Y163.766 F9000
G1 E5 F2400
;TYPE:Perimeter
G1 F1200
G1 X149.435 Y164.019 E.00808
G1 X149.41 Y164.618 E.0188
G1 X149.333 Y165.242 E.01971
G1 X149.2 Y165.79 E.01768
G1 X149.021 Y166.284 E.01647
G1 X148.783 Y166.77 E.01697
G1 X148.478 Y167.253 E.01791
G1 X148.14 Y167.673 E.0169
G1 X147.754 Y168.051 E.01694
G1 X147.271 Y168.425 E.01915
